svg/device/shower_line.svg

<svg xmlns="http://www.w3.org/2000/svg" width="24" height="24" viewBox="0 0 24 24"><g fill="none" fill-rule="evenodd"><path d="M24,0 L24,24 L0,24 L0,0 L24,0 Z M12.5935,23.2578 L12.5819,23.2595 L12.5109,23.295 L12.4919,23.2987 L12.4767,23.295 L12.4057,23.2595 C12.3958,23.2564 12.387,23.259 12.3821,23.2649 L12.378,23.2758 L12.3609,23.7031 L12.3659,23.7235 L12.3769,23.7357 L12.4805,23.8097 L12.4953,23.8136 L12.5071,23.8097 L12.6107,23.7357 L12.6233,23.7197 L12.6267,23.7031 L12.6096,23.2758 C12.6076,23.2657 12.601,23.2593 12.5935,23.2578 Z M12.8584,23.1453 L12.8445,23.1473 L12.6598,23.2397 L12.6499,23.2499 L12.6472,23.2611 L12.6651,23.6906 L12.6699,23.7034 L12.6784,23.7105 L12.8793,23.8032 C12.8914,23.8069 12.9022,23.803 12.9078,23.7952 L12.9118,23.7812 L12.8777,23.1665 C12.8753,23.1546 12.8674,23.147 12.8584,23.1453 Z M12.143,23.1473 C12.1332,23.1424 12.1222,23.1453 12.1156,23.1526 L12.1099,23.1665 L12.0758,23.7812 C12.0751,23.7927 12.0828,23.8019 12.0926,23.8046 L12.1083,23.8032 L12.3092,23.7105 L12.3186,23.7024 L12.3225,23.6906 L12.3404,23.2611 L12.3372,23.2485 L12.3278,23.2397 L12.143,23.1473 Z"/><path fill="#09244B" d="M12.4093,3.65327 C13.84248,2.08908733 16.2157111,1.80334614 17.9810145,2.99254048 L18.1614,3.12083 L18.4842,3.36299 C19.3788562,4.03395875 19.928366,5.06309937 19.99356,6.17198261 L20.0001,6.39474 L20.0001,20.9999 C20.0001,21.5522 19.5524,21.9999 19.0001,21.9999 C18.48725,21.9999 18.0645908,21.613873 18.0068275,21.1165239 L18.0001,20.9999 L18.0001,6.39474 C18.0001,5.887752 17.785288,5.4073968 17.4137653,5.07000093 L17.2842,4.96299 L16.9614,4.72083 C16.1859937,4.13927062 15.1599234,4.11935871 14.3769146,4.59839803 L14.2237,4.70084 L14.9822,5.13875 C16.8336839,6.20768871 17.5073009,8.53324657 16.547719,10.4161483 L16.4463,10.6029 L15.9463,11.4689 C15.6899214,11.9130357 15.1442597,12.0859954 14.6846623,11.8873768 L14.5803,11.8349 L5.92003,6.8349 C5.47590357,6.57848429 5.30287556,6.03282852 5.50151637,5.57324019 L5.554,5.46888 L6.054,4.60285 C7.12293871,2.75139516 9.44850593,2.07777903 11.3313539,3.03733376 L11.5181,3.13875 L12.4093,3.65327 Z M6.7501,15.397 C7.22839,15.6731 7.39227,16.2847 7.11612,16.763 L6.61612,17.629 C6.33998,18.1073 5.72839,18.2712 5.2501,17.9951 C4.77181,17.7189 4.60793,17.1073 4.88407,16.629 L5.38407,15.763 C5.66022,15.2847 6.27181,15.1208 6.7501,15.397 Z M8.98215,15.5309 C9.25829,15.0527 9.86988,14.8888 10.3482,15.1649 C10.7923357,15.4213714 10.9652954,15.9670398 10.7666768,16.4265576 L10.7142,16.5309 L10.2142,17.397 C9.93806,17.8753 9.32647,18.0391 8.84818,17.763 C8.40404429,17.5066214 8.23102423,16.9609597 8.42966622,16.5013623 L8.48215,16.397 L8.98215,15.5309 Z M5.15202,12.1649 C5.63032,12.4411 5.79419,13.0527 5.51805,13.5309 L5.01805,14.397 C4.74191,14.8753 4.13032,15.0391 3.65202,14.763 C3.17373,14.4869 3.00985,13.8753 3.286,13.397 L3.786,12.5309 C4.06214,12.0527 4.67373,11.8888 5.15202,12.1649 Z M8.7501,11.9329 C9.22839,12.209 9.39227,12.8206 9.11612,13.2989 L8.61612,14.1649 C8.33998,14.6432 7.72839,14.8071 7.2501,14.5309 C6.77181,14.2548 6.60793,13.6432 6.88407,13.1649 L7.38407,12.2989 C7.66022,11.8206 8.27181,11.6567 8.7501,11.9329 Z M10.9821,12.0668 C11.2583,11.5886 11.8699,11.4247 12.3482,11.7008 C12.7923357,11.9572714 12.9652954,12.5029398 12.7666768,12.9624576 L12.7142,13.0668 L12.2142,13.9329 C11.9381,14.4112 11.3265,14.575 10.8482,14.2989 C10.4040643,14.0425214 10.2310184,13.4968597 10.4296246,13.0372623 L10.4821,12.9329 L10.9821,12.0668 Z M7.15202,8.70082 C7.63032,8.97696 7.79419,9.58856 7.51805,10.0668 L7.01805,10.9329 C6.74191,11.4112 6.13032,11.575 5.65202,11.2989 C5.17373,11.0228 5.00985,10.4112 5.286,9.93287 L5.786,9.06685 C6.06214,8.58856 6.67373,8.42468 7.15202,8.70082 Z M7.78606,5.60285 L14.7143,9.60285 C15.2665,8.64627 14.9388,7.42309 13.9822,6.8708 L10.5181,4.8708 C9.56152,4.31852 8.33834,4.64627 7.78606,5.60285 Z"/></g></svg>

<svg xmlns="http://www.w3.org/2000/svg" width="24" height="24"><g fill="none" fill-rule="evenodd"><path d="M24 0v24H0V0zM12.594 23.258l-.012.002-.071.035-.02.004-.014-.004-.071-.036c-.01-.003-.019 0-.024.006l-.004.01-.017.428.005.02.01.013.104.074.015.004.012-.004.104-.074.012-.016.004-.017-.017-.427c-.002-.01-.009-.017-.016-.018m.264-.113-.014.002-.184.093-.01.01-.003.011.018.43.005.012.008.008.201.092c.012.004.023 0 .029-.008l.004-.014-.034-.614c-.003-.012-.01-.02-.02-.022m-.715.002a.023.023 0 0 0-.027.006l-.006.014-.034.614c0 .012.007.02.017.024l.015-.002.201-.093.01-.008.003-.011.018-.43-.003-.012-.01-.01z"/><path fill="#09244B" d="M12.41 3.653a4.304 4.304 0 0 1 5.571-.66l.18.128.323.242a3.79 3.79 0 0 1 1.51 2.809l.006.223V21a1 1 0 0 1-1.993.117L18 21V6.395a1.79 1.79 0 0 0-.586-1.325l-.13-.107-.323-.242a2.304 2.304 0 0 0-2.584-.123l-.153.103.758.438a4 4 0 0 1 1.566 5.277l-.102.187-.5.866a1 1 0 0 1-1.261.418l-.105-.052-8.66-5a1 1 0 0 1-.418-1.262l.052-.104.5-.866a4 4 0 0 1 5.277-1.566l.187.102zM6.75 15.397a1 1 0 0 1 .366 1.366l-.5.866a1 1 0 1 1-1.732-1l.5-.866a1 1 0 0 1 1.366-.366m2.232.134a1 1 0 0 1 1.785.896l-.053.104-.5.866a1 1 0 0 1-1.784-.896l.052-.104zm-3.83-3.366a1 1 0 0 1 .366 1.366l-.5.866a1 1 0 0 1-1.732-1l.5-.866a1 1 0 0 1 1.366-.366m3.598-.232a1 1 0 0 1 .366 1.366l-.5.866a1 1 0 1 1-1.732-1l.5-.866a1 1 0 0 1 1.366-.366m2.232.134a1 1 0 0 1 1.785.895l-.053.105-.5.866a1 1 0 0 1-1.784-.896l.052-.104zM7.152 8.7a1 1 0 0 1 .366 1.366l-.5.866a1 1 0 0 1-1.732-1l.5-.866A1 1 0 0 1 7.152 8.7m.634-3.098 6.928 4a2 2 0 0 0-.732-2.732l-3.464-2a2 2 0 0 0-2.732.732"/></g></svg>
